svg-icons/octicons/checklist.svg

<svg viewBox="0 0 16 16" xmlns="http://www.w3.org/2000/svg">
  <path d="M16 8.5L10 14.5 7 11.5l1.5-1.5 1.5 1.5 4.5-4.5 1.5 1.5zM5.7 12.2l0.8 0.8H2c-0.55 0-1-0.45-1-1V3c0-0.55 0.45-1 1-1h7c0.55 0 1 0.45 1 1v6.5l-0.8-0.8c-0.39-0.39-1.03-0.39-1.42 0L5.7 10.8c-0.39 0.39-0.39 1.02 0 1.41zM4 4h5v-1H4v1z m0 2h5v-1H4v1z m0 2h3v-1H4v1z m-1 1h-1v1h1v-1z m0-2h-1v1h1v-1z m0-2h-1v1h1v-1z m0-2h-1v1h1v-1z" />
</svg>

<svg xmlns="http://www.w3.org/2000/svg" viewBox="0 0 16 16"><path d="M16 8.5l-6 6-3-3L8.5 10l1.5 1.5L14.5 7 16 8.5zM5.7 12.2l.8.8H2c-.55 0-1-.45-1-1V3c0-.55.45-1 1-1h7c.55 0 1 .45 1 1v6.5l-.8-.8c-.39-.39-1.03-.39-1.42 0L5.7 10.8a.996.996 0 0 0 0 1.41v-.01zM4 4h5V3H4v1zm0 2h5V5H4v1zm0 2h3V7H4v1zM3 9H2v1h1V9zm0-2H2v1h1V7zm0-2H2v1h1V5zm0-2H2v1h1V3z"/></svg>
